src/icons/location.svg

<svg width="30" height="30" viewBox="0 0 30 30" fill="none" xmlns="http://www.w3.org/2000/svg">
<path d="M15 1.00001C13.5548 0.997986 12.1235 1.26134 10.7879 1.77499C9.45235 2.28864 8.23885 3.04248 7.21698 3.9933C6.1951 4.94413 5.38493 6.07325 4.8329 7.31595C4.28087 8.55865 3.99784 9.8905 4.00001 11.2352C4.00001 19.1681 15 29 15 29C15 29 26 19.1374 26 11.2352C26.0022 9.8905 25.7191 8.55865 25.1671 7.31595C24.6151 6.07325 23.8049 4.94413 22.783 3.9933C21.7611 3.04248 20.5476 2.28864 19.2121 1.77499C17.8765 1.26134 16.4451 0.997986 15 1.00001ZM15 15.933C14.008 15.933 13.0382 15.6593 12.2134 15.1464C11.3885 14.6336 10.7457 13.9047 10.366 13.0519C9.98639 12.1991 9.88706 11.2608 10.0806 10.3554C10.2741 9.45013 10.7518 8.61855 11.4533 7.96585C12.1548 7.31316 13.0485 6.86866 14.0215 6.68859C14.9944 6.50851 16.0029 6.60093 16.9195 6.95417C17.836 7.3074 18.6193 7.90559 19.1705 8.67308C19.7216 9.44057 20.0158 10.3429 20.0158 11.2659C20.0167 11.8791 19.8876 12.4863 19.6359 13.053C19.3841 13.6196 19.0147 14.1344 18.5488 14.568C18.0828 15.0015 17.5295 15.3453 16.9206 15.5795C16.3116 15.8137 15.6589 15.9338 15 15.933Z" fill="#BDBDBD"/>
</svg>

<?xml version="1.0" standalone="no"?><!DOCTYPE svg PUBLIC "-//W3C//DTD SVG 1.1//EN" "http://www.w3.org/Graphics/SVG/1.1/DTD/svg11.dtd"><svg width="100%" height="100%" viewBox="0 0 30 30" version="1.1" xmlns="http://www.w3.org/2000/svg" xmlns:xlink="http://www.w3.org/1999/xlink" xml:space="preserve" style="fill-rule:evenodd;clip-rule:evenodd;stroke-linejoin:round;stroke-miterlimit:1.41421;"><path d="M15,1c-1.445,-0.002 -2.877,0.261 -4.212,0.775c-1.336,0.514 -2.549,1.267 -3.571,2.218c-1.022,0.951 -1.832,2.08 -2.384,3.323c-0.552,1.243 -0.835,2.574 -0.833,3.919c0,7.933 11,17.765 11,17.765c0,0 11,-9.863 11,-17.765c0.002,-1.345 -0.281,-2.676 -0.833,-3.919c-0.552,-1.243 -1.362,-2.372 -2.384,-3.323c-1.022,-0.951 -2.235,-1.704 -3.571,-2.218c-1.335,-0.514 -2.767,-0.777 -4.212,-0.775ZM15,15.933c-0.992,0 -1.962,-0.274 -2.787,-0.787c-0.825,-0.512 -1.467,-1.241 -1.847,-2.094c-0.38,-0.853 -0.479,-1.791 -0.285,-2.697c0.193,-0.905 0.671,-1.736 1.372,-2.389c0.702,-0.653 1.595,-1.097 2.568,-1.277c0.973,-0.18 1.982,-0.088 2.898,0.265c0.917,0.353 1.7,0.952 2.252,1.719c0.551,0.768 0.845,1.67 0.845,2.593c0.001,0.613 -0.128,1.22 -0.38,1.787c-0.252,0.567 -0.621,1.081 -1.087,1.515c-0.466,0.433 -1.02,0.777 -1.628,1.011c-0.609,0.235 -1.262,0.355 -1.921,0.354Z" style="fill:#9e9e9e;fill-rule:nonzero;"/></svg>
